X:1
T:Stille Nacht
T:Stille Nacht
T:Franz X. Gruber, Harm: Carl. H. Reinecke
C:Franz X. Gruber, Harm: Carl. H. Reinecke
%%score [ 1 2 3 4 ]
L:1/8
Q:1/8=80
M:6/8
K:Bb
V:1 treble nm="Soprano"
V:2 treble nm="Alto"
V:3 treble-8 nm="Tenor"
V:4 bass nm="Bass"
V:1
 (F>G) F D3 | F3/2 G/ F D3 | c2 c A3 | B2 B F3 | G2 G B3/2 A/ G | F3/2 G/ F D3 | G2 G B3/2 A/ G | %7
w: 1.Stil- * le Nacht,|hei- li- ge Nacht.|Al- les schläft,|ein- sam wacht|nur das trau- te hoch-|hei- li- ge Paar.|Hol- der Kna- be im|
 F3/2 G/ F D3 | c2 c e3/2 c/ A | (B3 d3) | (B>F) D F3/2 E/ C | B,6 |] %12
w: lo- cki- gen Haar,|Schlaf in himm- li- scher|Ruh, _|schlaf _ in himm- li- scher|Ruh.|
V:2
 (D>E) D B,3 | D3/2 E/ D B,3 | E2 E E3 | D2 D D3 | E2 E G3/2 F/ E | D3/2 E/ D B,3 | %6
w: 1.Stil- * le Nacht,|hei- li- ge Nacht.|Al- les schläft,|ein- sam wacht|nur das trau- te hoch-|hei- li- ge Paar.|
 E2 E G3/2 F/ E | D3/2 E/ D B,3 | F2 F F3/2 F/ F | F6 | B,2 B, A,3/2 A,/ A, | B,6 |] %12
w: Hol- der Kna- be im|lo- cki- gen Haar,|Schlaf in himm- li- scher|Ruh,|schlaf in himm- li- scher|Ruh.|
V:3
 F2 F F3 | F3/2 F/ F F3 | A2 A c3 | B2 B B3 | B2 B B3/2 B/ B | B3/2 B/ B B3 | B2 B B3/2 B/ B | %7
w: 1.Stil- le Nacht,|hei- li- ge Nacht.|Al- les schläft,|ein- sam wacht|nur das trau- te hoch-|hei- li- ge Paar.|Hol- der Kna- be im|
 B3/2 B/ B B3 | A2 A A3/2 A/ e | (d3 B3) | F2 F F3/2 F/ F | D6 |] %12
w: lo- cki- gen Haar,|Schlaf in himm- li- scher|Ruh, _|schlaf in himm- li- scher|Ruh.|
V:4
 B,,2 B,, B,,3 | B,,3/2 B,,/ B,, B,,3 | F,2 F, F,3 | B,,2 B,, B,,3 | E,2 E, E,3/2 E,/ E, | %5
w: 1.Stil- le Nacht,|hei- li- ge Nacht.|Al- les schläft,|ein- sam wacht|nur das trau- te hoch-|
 B,,3/2 B,,/ B,, B,,3 | E,2 E, E,3/2 E,/ E, | B,,3/2 B,,/ B,, B,,3 | F,2 F, F,3/2 F,/ F, | B,6 | %10
w: hei- li- ge Paar.|Hol- der Kna- be im|lo- cki- gen Haar,|Schlaf in himm- li- scher|Ruh,|
 D,2 B,, F,,3/2 F,,/ F,, | B,,6 |] %12
w: schlaf in himm- li- scher|Ruh.|

